X: 26711
T: Mike Hobin's
R: mazurka
M: 3/4
K: Amixolydian
Bcd|e2A A2g f2d|e2A ~A3 Bcd|e2g f2d =c2e|d2G ~G3 Bcd|
e2A A2g f2d|e2g a2g e2f|g2e d2B G2d|B2A ~A3:|
|:Bcd|e2a a2b a2g|e2d e2f g2a|g2e a2f g2e|d2B ~G3 Bcd|
e2a a2b a2g|e2d e2f g2a|g2e d2d BAG|B2A ~A3:|

